packages/dnb-eufemia/assets/icons/people_1.svg

<svg width="16" height="16" viewBox="0 0 16 16" fill="none" xmlns="http://www.w3.org/2000/svg">
<path d="M13.1037 15.0458C13.129 15.4593 13.4846 15.7739 13.8981 15.7486C14.3115 15.7233 14.6262 15.3676 14.6009 14.9542L13.1037 15.0458ZM7.89533 15.0395C7.91716 15.4532 8.27017 15.7708 8.68381 15.749C9.09745 15.7271 9.41507 15.3741 9.39324 14.9605L7.89533 15.0395ZM1.4007 14.9605C1.37887 15.3741 1.6965 15.7271 2.11014 15.749C2.52377 15.7708 2.87679 15.4532 2.89862 15.0395L1.4007 14.9605ZM10.5281 9.25869C10.1317 9.13835 9.71288 9.36211 9.59254 9.75845C9.47221 10.1548 9.69596 10.5737 10.0923 10.694L10.5281 9.25869ZM12.4979 3.05064C12.104 2.92246 11.6808 3.13786 11.5527 3.53174C11.4245 3.92562 11.6399 4.34883 12.0338 4.47701L12.4979 3.05064ZM10.7348 11.3574C10.325 11.4181 10.042 11.7994 10.1027 12.2092C10.1633 12.6189 10.5446 12.9019 10.9544 12.8413L10.7348 11.3574ZM11.2574 12.8198C11.8461 12.8198 12.2562 13.0426 12.5457 13.3944C12.8522 13.7669 13.0601 14.3334 13.1037 15.0458L14.6009 14.9542C14.5438 14.0214 14.2646 13.1227 13.704 12.4414C13.1264 11.7394 12.2895 11.3198 11.2574 11.3198V12.8198ZM13.7632 6.86047C13.7632 8.24439 12.6414 9.36628 11.2574 9.36628V10.8663C13.4698 10.8663 15.2632 9.07281 15.2632 6.86047H13.7632ZM5.39697 12.1686C6.20776 12.1686 6.78019 12.4709 7.17518 12.9402C7.58619 13.4286 7.84856 14.1532 7.89533 15.0395L9.39324 14.9605C9.33419 13.8414 8.99696 12.7753 8.3228 11.9743C7.63262 11.1543 6.63431 10.6686 5.39697 10.6686V12.1686ZM2.89862 15.0395C2.94539 14.1532 3.20775 13.4286 3.61877 12.9402C4.01376 12.4709 4.58618 12.1686 5.39697 12.1686V10.6686C4.15964 10.6686 3.16132 11.1543 2.47114 11.9743C1.79699 12.7753 1.45975 13.8414 1.4007 14.9605L2.89862 15.0395ZM8.55394 4.90698C8.55394 6.65053 7.14052 8.06395 5.39697 8.06395V9.56395C7.96894 9.56395 10.0539 7.47895 10.0539 4.90698H8.55394ZM5.39697 8.06395C3.65342 8.06395 2.23999 6.65053 2.23999 4.90698H0.73999C0.73999 7.47895 2.82499 9.56395 5.39697 9.56395V8.06395ZM2.23999 4.90698C2.23999 3.16343 3.65342 1.75 5.39697 1.75V0.25C2.82499 0.25 0.73999 2.335 0.73999 4.90698H2.23999ZM5.39697 1.75C7.14052 1.75 8.55394 3.16343 8.55394 4.90698H10.0539C10.0539 2.335 7.96894 0.25 5.39697 0.25V1.75ZM11.2574 9.36628C11.0026 9.36628 10.758 9.32848 10.5281 9.25869L10.0923 10.694C10.4619 10.8062 10.8533 10.8663 11.2574 10.8663V9.36628ZM12.0338 4.47701C13.0386 4.804 13.7632 5.74858 13.7632 6.86047H15.2632C15.2632 5.08002 14.1022 3.57271 12.4979 3.05064L12.0338 4.47701ZM10.9544 12.8413C11.0482 12.8274 11.1491 12.8198 11.2574 12.8198V11.3198C11.0788 11.3198 10.9044 11.3323 10.7348 11.3574L10.9544 12.8413Z" fill="black"/>
</svg>

<svg width="16" height="16" viewBox="0 0 16 16" fill="none" xmlns="http://www.w3.org/2000/svg"><path d="M13.104 15.046a.75.75 0 1 0 1.497-.092l-1.497.092Zm-5.209-.006a.75.75 0 1 0 1.498-.08l-1.498.08Zm-6.494-.08a.75.75 0 0 0 1.498.08L1.4 14.96Zm9.127-5.701a.75.75 0 1 0-.436 1.435l.436-1.435Zm1.97-6.208a.75.75 0 1 0-.464 1.426l.464-1.426Zm-1.763 8.306a.75.75 0 0 0 .22 1.484l-.22-1.484Zm.522 1.463c.59 0 1 .223 1.289.574.306.373.514.94.558 1.652l1.497-.092c-.057-.933-.336-1.831-.897-2.513-.578-.702-1.415-1.121-2.447-1.121v1.5Zm2.506-5.96a2.506 2.506 0 0 1-2.506 2.506v1.5a4.006 4.006 0 0 0 4.006-4.006h-1.5Zm-8.366 5.31c.81 0 1.383.302 1.778.771.411.489.674 1.213.72 2.1l1.498-.08c-.059-1.119-.396-2.185-1.07-2.986-.69-.82-1.689-1.305-2.926-1.305v1.5Zm-2.498 2.87c.046-.886.309-1.61.72-2.099.395-.47.967-.771 1.778-.771v-1.5c-1.237 0-2.236.485-2.926 1.305-.674.801-1.011 1.867-1.07 2.986l1.498.08ZM8.554 4.908a3.157 3.157 0 0 1-3.157 3.157v1.5a4.657 4.657 0 0 0 4.657-4.657h-1.5ZM5.397 8.064A3.157 3.157 0 0 1 2.24 4.907H.74a4.657 4.657 0 0 0 4.657 4.657v-1.5ZM2.24 4.907A3.157 3.157 0 0 1 5.397 1.75V.25A4.657 4.657 0 0 0 .74 4.907h1.5ZM5.397 1.75a3.157 3.157 0 0 1 3.157 3.157h1.5A4.657 4.657 0 0 0 5.397.25v1.5Zm5.86 7.616c-.254 0-.499-.038-.729-.107l-.436 1.435c.37.112.761.172 1.165.172v-1.5Zm.777-4.889a2.507 2.507 0 0 1 1.73 2.383h1.5a4.007 4.007 0 0 0-2.766-3.81l-.464 1.427Zm-1.08 8.364a2.06 2.06 0 0 1 .303-.021v-1.5c-.178 0-.353.012-.522.037l.22 1.484Z" fill="#000"/></svg>
